X:1
T:Title
%%score { ( 1 3 ) | ( 2 4 ) }
L:1/8
M:4/4
K:Bb
V:1 treble nm="Grand Piano"
V:3 treble 
V:2 bass 
V:4 bass 
V:1
 z4 z2[Q:1/4=100] [DB]>[DB] | A2 G>G [=DF]2 D>F | z4 A,2 A>A | [EG]2 F>F [CE]2 C>E | %4
[M:3/4] D6[K:bass] |[M:1/4][K:treble] [DB]>[DB] |[M:4/4] A2 G>G [=DF]2 D>F | z4 A,2 A>A | %8
 [EG]2 F>F [CE]2 C>E |[M:3/4] D6[K:bass] |[M:1/4][K:treble] D>E |[M:4/4] [EG]>F F>=E [F,DF]2 F>G | %12
 [DB]>A A>_A [C=A]2 A>B | [Ec]2 [DB]>c [Fd]2 [Ec]2 | [Be]2 d2- [Bd]2 B>c | d2 d4 c>d | B6 z2 | %17
 [Fd]>c [Ec]>B c2 A>B | z4 B2 z2 |[M:9/8] [DFB]2 [Ee]- [Ee]2 [Fd]- [Fd]/[Fd]<[Ec][Fd]/ | %20
[M:3/4] [DB]6 |] %21
V:2
 z4 z2 [B,,F,]>[B,,F,] | [B,,=E,]4 z2 B,2 | B,4 z2[K:treble] F>F | z2 D>D z2 A,2 | %4
[M:3/4] F,2 z2 z2 |[M:1/4] [B,,F,]>[B,,F,] |[M:4/4] [B,,=E,]4 z2 B,2 | B,4 z2[K:treble] F>F | %8
 z2 D>D z2 A,2 |[M:3/4] F,2 z2 z2 |[M:1/4] B,>C |[M:4/4] z z/ D/ D>_D B,,2 =D>E | %12
 z z/ C/ C>=B, F,,2 C>D | F,2 z z/ E/ F,2 ^F,2 | z z/[K:treble] e/[K:bass] ^F,2 G,2 [F,=E]2 | %15
 [F,F]2 [F,B,F]4 [F,A,E]2 | z2 G,2 F,2 D>E | z z/ E/ z z/ D/ [F,A,E]2 C>D | %18
 z z/ D/ [F,,F,]2 [G,,D,]2[K:treble] G>A | %19
[M:9/8][K:bass] G,2 [C,G,]- [C,G,]2 [F,B,]- [F,B,] [F,A,]2 |[M:3/4] [B,,F,B,]6 |] %21
V:3
 x8 | _D4 z4 | E6 z2 | x8 |[M:3/4] z2[K:bass] G,2 F,2 |[M:1/4][K:treble] x2 |[M:4/4] _D4 z4 | %7
 E6 z2 | x8 |[M:3/4] z2[K:bass] G,2 F,2 |[M:1/4][K:treble] x2 |[M:4/4] x8 | x8 | x8 | z2 A2 z4 | %15
 x8 | [B,D]2 E2 D2 B>c | x8 | [Ec]>B [DB]>[CA] B,4 |[M:9/8] x9 |[M:3/4] x6 |] %21
V:4
 x8 | z4 [B,,F,]4 | [C,F,]6[K:treble] z2 | F,4 [F,,F,]4 |[M:3/4] [B,,B,]6 |[M:1/4] x2 | %6
[M:4/4] z4 [B,,F,]4 | [C,F,]6[K:treble] z2 | F,4 [F,,F,]4 |[M:3/4] [B,,B,]6 |[M:1/4] x2 | %11
[M:4/4] F,4 z4 | F,6 z2 | z2 G,2 z4 | G,2[K:treble][K:bass] z2 z4 | x8 | B,,6 z2 | B,,2 F,2 z4 | %18
 F,2 z2 z4[K:treble] |[M:9/8][K:bass] x9 |[M:3/4] x6 |] %21

